apps/site/public/icons/companies/nachonacho_light.svg

<svg width="208" height="22" viewBox="0 0 208 22" fill="none" xmlns="http://www.w3.org/2000/svg">
<g clip-path="url(#clip0_817_35)">
<path d="M12.0921 21.9333H20.9125V0H15.1151V7.60337H13.6625V4.81591C13.6625 1.16472 12.4847 0 8.82043 0H0V21.9333H5.79741V14.3299H7.25003V17.1174C7.25003 20.7686 8.42783 21.9333 12.0921 21.9333Z" fill="#2376FF"/>
<path d="M41.4063 21.933V9.8016C41.4063 3.8995 39.5873 2.45996 32.1278 2.45996C24.6684 2.45996 22.8494 3.8995 22.8494 9.8016V21.933H31.4212V18.8314H32.8214V21.933H41.3932H41.4063ZM31.4212 14.2118V8.06107H32.8214V14.2118H31.4212Z" fill="#2376FF"/>
<path d="M61.9002 7.64288C61.9002 3.76922 59.5577 2.47363 52.6217 2.47363C45.1623 2.47363 43.3433 4.09638 43.3433 10.7575V13.7805C43.3433 20.2715 45.2539 21.9597 52.6217 21.9597C57.5947 21.9597 61.0234 21.0175 61.9002 20.7558V14.749C61.1019 15.1546 59.6885 15.7174 57.5554 15.7174C53.2892 15.7174 51.915 14.2255 51.915 9.57971V8.08783H53.3153V9.57971C53.3153 13.2832 54.2314 14.2909 57.5554 14.2909C60.8794 14.2909 61.9002 13.2963 61.9002 9.6844V7.66905V7.64288Z" fill="#2376FF"/>
<path d="M82.4069 21.933V2.45996H73.8221V8.29663H72.4218V2.45996H63.8369V21.933H72.4218V16.1225H73.8221V21.933H82.4069Z" fill="#2376FF"/>
<path d="M93.6222 2.45996C86.1628 2.45996 84.3438 4.08271 84.3438 10.7438V13.7276C84.3438 20.4018 86.0843 21.9461 93.6222 21.9461C101.16 21.9461 102.901 20.4149 102.901 13.7276V10.7438C102.901 4.0958 101.082 2.45996 93.6222 2.45996ZM94.3289 16.3449H92.9286V8.06107H94.3289V16.3449Z" fill="#2376FF"/>
<path d="M117.191 21.9333H126.012V0H120.215V7.60337H118.762V4.81591C118.762 1.16472 117.584 0 113.92 0H105.099V21.9333H110.897V14.3299H112.349V17.1174C112.349 20.7686 113.527 21.9333 117.191 21.9333Z" fill="#2376FF"/>
<path d="M146.506 21.933V9.8016C146.506 3.8995 144.687 2.45996 137.227 2.45996C129.768 2.45996 127.949 3.8995 127.949 9.8016V21.933H136.521V18.8314H137.921V21.933H146.493H146.506ZM136.521 14.2118V8.06107H137.921V14.2118H136.521Z" fill="#2376FF"/>
<path d="M167.012 7.64288C167.012 3.76922 164.67 2.47363 157.734 2.47363C150.274 2.47363 148.455 4.09638 148.455 10.7575V13.7805C148.455 20.2715 150.366 21.9597 157.734 21.9597C162.707 21.9597 166.136 21.0175 167.012 20.7558V14.749C166.214 15.1546 164.814 15.7174 162.668 15.7174C158.401 15.7174 157.027 14.2255 157.027 9.57971V8.08783H158.428V9.57971C158.428 13.2832 159.344 14.2909 162.668 14.2909C165.992 14.2909 167.012 13.2963 167.012 9.6844V7.66905V7.64288Z" fill="#2376FF"/>
<path d="M187.506 21.933V2.45996H178.921V8.29663H177.521V2.45996H168.949V21.933H177.521V16.1225H178.921V21.933H187.506Z" fill="#2376FF"/>
<path d="M198.722 2.45996C191.262 2.45996 189.443 4.08271 189.443 10.7438V13.7276C189.443 20.4018 191.184 21.9461 198.722 21.9461C206.26 21.9461 208 20.4149 208 13.7276V10.7438C208 4.0958 206.181 2.45996 198.722 2.45996ZM199.428 16.3449H198.028V8.06107H199.428V16.3449Z" fill="#2376FF"/>
</g>
<defs>
<clipPath id="clip0_817_35">
<rect width="208" height="21.9333" fill="white"/>
</clipPath>
</defs>
</svg>

<svg xmlns="http://www.w3.org/2000/svg" width="208" height="22" fill="none" viewBox="0 0 208 22"><g fill="#2376ff" clip-path="url(#a)"><path d="M12.092 21.933h8.82V0h-5.797v7.603h-1.453V4.816C13.663 1.165 12.486 0 8.82 0H0v21.933h5.797V14.33H7.25v2.787c0 3.652 1.178 4.816 4.842 4.816m29.314 0V9.802c0-5.902-1.819-7.342-9.278-7.342s-9.279 1.44-9.279 7.342v12.131h8.572v-3.102h1.4v3.102zm-9.985-7.721v-6.15h1.4v6.15zM61.9 7.643c0-3.874-2.342-5.17-9.278-5.17-7.46 0-9.279 1.623-9.279 8.285v3.023c0 6.49 1.91 8.179 9.279 8.179 4.973 0 8.401-.943 9.278-1.204v-6.007c-.798.406-2.212.968-4.345.968-4.266 0-5.64-1.492-5.64-6.137V8.088h1.4V9.58c0 3.703.916 4.71 4.24 4.71s4.345-.994 4.345-4.606zm20.507 14.29V2.46h-8.585v5.837h-1.4V2.46h-8.585v19.473h8.585v-5.81h1.4v5.81zM93.622 2.46c-7.46 0-9.278 1.623-9.278 8.284v2.984c0 6.674 1.74 8.218 9.278 8.218s9.279-1.531 9.279-8.218v-2.984c0-6.648-1.819-8.284-9.279-8.284m.707 13.885h-1.4V8.06h1.4zm22.862 5.588h8.821V0h-5.797v7.603h-1.453V4.816c0-3.651-1.178-4.816-4.842-4.816h-8.821v21.933h5.798V14.33h1.452v2.787c0 3.652 1.178 4.816 4.842 4.816m29.315 0V9.802c0-5.902-1.819-7.342-9.279-7.342-7.459 0-9.278 1.44-9.278 7.342v12.131h8.572v-3.102h1.4v3.102zm-9.985-7.721v-6.15h1.4v6.15zm30.491-6.569c0-3.874-2.342-5.17-9.278-5.17-7.46 0-9.279 1.623-9.279 8.285v3.023c0 6.49 1.911 8.179 9.279 8.179 4.973 0 8.402-.943 9.278-1.204v-6.007c-.798.406-2.198.968-4.344.968-4.267 0-5.641-1.492-5.641-6.137V8.088h1.401V9.58c0 3.703.916 4.71 4.24 4.71s4.344-.994 4.344-4.606zm20.494 14.29V2.46h-8.585v5.837h-1.4V2.46h-8.572v19.473h8.572v-5.81h1.4v5.81zM198.722 2.46c-7.46 0-9.279 1.623-9.279 8.284v2.984c0 6.674 1.741 8.218 9.279 8.218S208 20.415 208 13.728v-2.984c0-6.648-1.819-8.284-9.278-8.284m.706 13.885h-1.4V8.06h1.4z"/></g><defs><clipPath id="a"><path fill="#fff" d="M0 0h208v21.933H0z"/></clipPath></defs></svg>
